svg/fluentui-system-icons/ic_fluent_headset_16_regular.svg

<svg width="16" height="16" viewBox="0 0 16 16" fill="none" xmlns="http://www.w3.org/2000/svg">
<path d="M4 6C4 3.79086 5.79086 2 8 2C10.2091 2 12 3.79086 12 6H10C9.44772 6 9 6.44772 9 7V10C9 10.5523 9.44772 11 10 11H11C12.1046 11 13 10.1046 13 9V6C13 3.23858 10.7614 1 8 1C5.23858 1 3 3.23858 3 6V11C3 12.6569 4.34315 14 6 14H6.58535C6.79127 14.5826 7.34689 15 8 15C8.82843 15 9.5 14.3284 9.5 13.5C9.5 12.6716 8.82843 12 8 12C7.34689 12 6.79127 12.4174 6.58535 13H6C4.89543 13 4 12.1046 4 11H6C6.55228 11 7 10.5523 7 10V7C7 6.44772 6.55228 6 6 6H4ZM12 7V9C12 9.55228 11.5523 10 11 10H10V7H12ZM6 10H4V7H6V10ZM7.5 13.5C7.5 13.2239 7.72386 13 8 13C8.27614 13 8.5 13.2239 8.5 13.5C8.5 13.7761 8.27614 14 8 14C7.72386 14 7.5 13.7761 7.5 13.5Z" fill="#212121"/>
</svg>

<svg xmlns="http://www.w3.org/2000/svg" width="16" height="16"><path d="M4 6a4 4 0 1 1 8 0h-2a1 1 0 0 0-1 1v3a1 1 0 0 0 1 1h1a2 2 0 0 0 2-2V6A5 5 0 0 0 3 6v5a3 3 0 0 0 3 3h.585a1.5 1.5 0 1 0 0-1H6a2 2 0 0 1-2-2h2a1 1 0 0 0 1-1V7a1 1 0 0 0-1-1H4Zm8 1v2a1 1 0 0 1-1 1h-1V7h2Zm-6 3H4V7h2v3Zm1.5 3.5a.5.5 0 1 1 1 0 .5.5 0 0 1-1 0Z"/></svg>
